X:1
T:Adapted from Samuel Stennett, 1787 86. 86. (C. M.)
T:D Major Oliver Holden, 1800
T:Joyful Tidings No copyright. Transcribed from Plain Psalmody, 1800.
%%score [ 1 2 3 ]
L:1/8
M:3/4
K:D
V:1 treble nm="Treble" snm="Tr."
V:2 treble-8 nm="Tenor" snm="T."
V:3 bass nm="Bass" snm="B."
V:1
 A>G | (F2 G2) AB/c/ | (d2 c2) B2 | (A2 G2) F2 | (G2 F2) D>E | (F2 A2) Bc/d/ | (c2 dB) A^G | %7
 A4 B>c | B2 F2 D>E | (F2 D2) CB, | F4 FG/A/ | (B2 F2) B>c | (d2 cB) ^A2 | B4 z2 |:[M:2/4] d2 d>d | %15
 cd ed | cd ef | e3 A | AB cd | e2 ^G2 | A4 | A2 Bc | dD FA | de/f/ gf | ed ge | d2 c2 | d4 :| %27
V:2
 F>G | (A2 B2) de/f/ | (f2 e2) d2 | (f2 e2) d2 | (e2 d2) F>G | (A2 d2) GA/B/ | (A2 Bd) d2 | c4 d2 | %8
w: 1.~When *|first * the * *|God * of|bound- * less|might * Dis- *|closed * His * *|kind * * de-|sign To|
 d2 A2 B>c | (B2 F2) B2 | B4 B2 | (d2 B2) d>e | (f2 ed) c2 | B4 z2 |:[M:2/4] A2 A>A | AB cd | %16
w: res- cure our un-|hap- * py|race From|death * and *|shame * * and|sin,|Quick, through the|realms * * of|
 AB cd | c3 d | ed ed | cd cB | c4 | A2 Bc | dD FA | d3 d | cB e[cg] | [Af]2 [Ge]2 | [Fd]4 :| %27
w: light * * and|bliss The|joy- * ful *|ti- * dings *|came;|Each heart ex-|ul- ted at the|news That|God * * could|dwell with|men.|
V:3
 D,2 | D,4 D,2 | D,4 D,2 | D,4 D,2 | D,4 D,2 | D,4 D,2 | E,4 E,2 | A,,4 D,2 | D,2 D,2 D,>C, | %9
 D,4 F,2 | B,,4 B,,2 | B,,4 B,,2 | F,4 F,,2 | B,,4 z2 |:[M:2/4] D,2 D,>D, | A,2 A,2 | A,2 A,2 | %17
 A,3 A, | A,2 A,2 | A,2 E,2 | A,4 | A,2 B,C | DD, F,A, | D3 D, | A,2 A,2 | A,2 A,2 | D,4 :| %27

